OUHealthPortal/icons/appticon.svg

<?xml version="1.0" encoding="UTF-8" standalone="no"?>
<!-- Created with Inkscape (http://www.inkscape.org/) -->

<svg
   width="210mm"
   height="210mm"
   viewBox="0 0 210 210"
   version="1.1"
   id="svg1"
   inkscape:version="1.4.3 (0d15f75042, 2025-12-25)"
   sodipodi:docname="appticon.svg"
   xmlns:inkscape="http://www.inkscape.org/namespaces/inkscape"
   xmlns:sodipodi="http://sodipodi.sourceforge.net/DTD/sodipodi-0.dtd"
   xmlns="http://www.w3.org/2000/svg"
   xmlns:svg="http://www.w3.org/2000/svg">
  <sodipodi:namedview
     id="namedview1"
     pagecolor="#505050"
     bordercolor="#eeeeee"
     borderopacity="1"
     inkscape:showpageshadow="0"
     inkscape:pageopacity="0"
     inkscape:pagecheckerboard="0"
     inkscape:deskcolor="#505050"
     inkscape:document-units="mm"
     inkscape:zoom="0.69396561"
     inkscape:cx="155.62731"
     inkscape:cy="510.83223"
     inkscape:window-width="1920"
     inkscape:window-height="996"
     inkscape:window-x="0"
     inkscape:window-y="0"
     inkscape:window-maximized="1"
     inkscape:current-layer="layer1" />
  <defs
     id="defs1">
    <linearGradient
       id="swatch89"
       inkscape:swatch="solid">
      <stop
         style="stop-color:#ffffff;stop-opacity:1;"
         offset="0"
         id="stop89" />
    </linearGradient>
    <clipPath
       clipPathUnits="userSpaceOnUse"
       id="clipPath5">
      <rect
         style="fill:#000000;stroke:#000000;stroke-width:0;stroke-linejoin:bevel;paint-order:stroke markers fill;stop-color:#000000"
         id="rect5-4"
         width="20"
         height="200"
         x="530"
         y="595" />
    </clipPath>
    <clipPath
       clipPathUnits="userSpaceOnUse"
       id="clipPath15">
      <rect
         style="fill:none;stroke:#000000;stroke-linecap:butt;stroke-linejoin:bevel;paint-order:stroke markers fill;stop-color:#000000"
         id="rect15-7"
         width="45.034248"
         height="38.955639"
         x="262.48285"
         y="121.00073" />
    </clipPath>
    <clipPath
       clipPathUnits="userSpaceOnUse"
       id="clipPath25">
      <rect
         style="fill:#ff0000;stroke:none;stroke-width:3;stroke-linecap:square;stroke-linejoin:miter;paint-order:stroke markers fill;stop-color:#000000"
         id="rect25-8"
         width="78"
         height="45.033199"
         x="763.61322"
         y="452.82422" />
    </clipPath>
    <clipPath
       clipPathUnits="userSpaceOnUse"
       id="clipPath24">
      <rect
         style="fill:none;stroke:#000000;stroke-width:0.999999;stroke-linecap:butt;stroke-linejoin:bevel;paint-order:stroke markers fill;stop-color:#000000"
         id="rect24"
         width="44.999748"
         height="77.937294"
         x="251.53429"
         y="222.73541" />
    </clipPath>
    <linearGradient
       id="swatch2"
       inkscape:swatch="solid">
      <stop
         style="stop-color:#ffffff;stop-opacity:1;"
         offset="0"
         id="stop2" />
    </linearGradient>
  </defs>
  <g
     inkscape:label="Layer 1"
     inkscape:groupmode="layer"
     id="layer1">
    <path
       d="m 73.604131,81.841749 v 20.435461 a 3.2121861,3.2121861 0 0 1 -3.210656,3.21274 H 46.713783 v 23.81459 h 23.679692 a 3.2121861,3.2121861 0 0 1 3.210656,3.21118 v 25.76173 a 3.2121861,3.2121861 0 0 1 -3.210656,3.21273 H 46.713783 v 12.0897 H 163.94228 v -12.0897 h -21.57232 a 3.2121861,3.2121861 0 0 1 -3.21066,-3.21273 v -25.76173 a 3.2121861,3.2121861 0 0 1 3.21066,-3.21118 h 21.57232 v -23.81459 h -21.57232 a 3.2121861,3.2121861 0 0 1 -3.21066,-3.21274 V 81.841749 h -15.55512 v 20.435461 a 3.2121861,3.2121861 0 0 1 -3.21066,3.21274 H 92.369911 a 3.2121861,3.2121861 0 0 1 -3.210657,-3.21274 V 81.841749 Z m 18.76578,47.462791 h 28.023609 a 3.2121861,3.2121861 0 0 1 3.21066,3.21118 v 25.76173 a 3.2121861,3.2121861 0 0 1 -3.21066,3.21273 H 92.369911 a 3.2121861,3.2121861 0 0 1 -3.210657,-3.21273 v -25.76173 a 3.2121861,3.2121861 0 0 1 3.210657,-3.21118 z"
       style="baseline-shift:baseline;display:inline;overflow:visible;vector-effect:none;fill:#ffffff;stroke-linecap:round;stroke-linejoin:round;enable-background:accumulate;stop-color:#000000;stop-opacity:1"
       id="path68" />
    <path
       d="M 33.1358,54.685267 A 13.579208,13.579208 0 0 0 19.557301,68.26325 v 118.89461 a 13.579208,13.579208 0 0 0 13.578499,13.5785 h 144.38447 a 13.579208,13.579208 0 0 0 13.5785,-13.5785 V 68.26325 a 13.579208,13.579208 0 0 0 -13.5785,-13.577983 z m 9.234062,18.619019 h 28.023613 a 3.2121861,3.2121861 0 0 1 3.210656,3.211173 v 5.32629 h 15.555123 v -5.32629 a 3.2121861,3.2121861 0 0 1 3.210657,-3.211173 h 28.023609 a 3.2121861,3.2121861 0 0 1 3.21066,3.211173 v 5.32629 h 15.55512 v -5.32629 a 3.2121861,3.2121861 0 0 1 3.21066,-3.211173 h 28.02361 a 3.2121861,3.2121861 0 0 1 3.21066,3.211173 v 25.761751 a 3.2121861,3.2121861 0 0 1 -3.21066,3.21274 h -6.45129 v 23.81459 h 6.45129 a 3.2121861,3.2121861 0 0 1 3.21066,3.21118 v 25.76173 a 3.2121861,3.2121861 0 0 1 -3.21066,3.21273 h -6.45129 v 12.0897 H 46.713783 v -12.0897 h -4.343921 a 3.2121861,3.2121861 0 0 1 -3.210657,-3.21273 v -25.76173 a 3.2121861,3.2121861 0 0 1 3.210657,-3.21118 h 4.343921 v -23.81459 h -4.343921 a 3.2121861,3.2121861 0 0 1 -3.210657,-3.21274 V 76.515459 a 3.2121861,3.2121861 0 0 1 3.210657,-3.211173 z"
       style="baseline-shift:baseline;display:inline;overflow:visible;vector-effect:none;fill:#ffffff;stroke-linecap:round;stroke-linejoin:round;enable-background:accumulate;stop-color:#000000;stop-opacity:1"
       id="path67" />
    <path
       d=""
       style="baseline-shift:baseline;display:inline;overflow:visible;vector-effect:none;fill:#ffffff;stroke-linecap:round;stroke-linejoin:round;enable-background:accumulate;stop-color:#000000;stop-opacity:1"
       id="path84" />
    <path
       d="M 29.738236,20.980116 A 11.1115,11.1115 0 0 0 18.62677,32.091582 11.1115,11.1115 0 0 0 29.738236,43.202532 H 181.09954 a 11.1115,11.1115 0 0 0 11.11147,-11.11095 11.1115,11.1115 0 0 0 -11.11147,-11.111466 h -21.09949 v 5.788794 a 10,10 0 0 1 -9.9999,10.000423 10,10 0 0 1 -9.99991,-10.000423 V 20.980116 H 69.999862 V 26.76891 A 10,10 0 0 1 59.999955,36.769333 10,10 0 0 1 50.000049,26.76891 v -5.788794 z"
       style="baseline-shift:baseline;display:inline;overflow:visible;vector-effect:none;fill:#ffffff;stroke-linecap:round;stroke-linejoin:round;enable-background:accumulate;stop-color:#000000;stop-opacity:1"
       id="path83" />
    <path
       d=""
       style="baseline-shift:baseline;display:inline;overflow:visible;vector-effect:none;fill:#ffffff;stroke-linecap:round;stroke-linejoin:round;enable-background:accumulate;stop-color:#000000;stop-opacity:1"
       id="path82" />
    <path
       d="M 59.999915,6.7217087 A 9,9 0 0 0 51,15.721625 v 10.465873 a 9,9 0 0 0 8.999915,9.000381 9,9 0 0 0 8.999917,-9.000381 V 15.721625 A 9,9 0 0 0 59.999915,6.7217087 Z"
       style="baseline-shift:baseline;display:inline;overflow:visible;vector-effect:none;fill:#ffffff;stroke-width:0.9;stroke-linecap:round;stroke-linejoin:round;enable-background:accumulate;stop-color:#000000;stop-opacity:1"
       id="path81" />
    <path
       d=""
       style="baseline-shift:baseline;display:inline;overflow:visible;vector-effect:none;fill:#ffffff;stroke-linecap:round;stroke-linejoin:round;enable-background:accumulate;stop-color:#000000;stop-opacity:1"
       id="path80" />
    <path
       d="M 149.99992,6.7235691 A 9,9 0 0 0 141,15.723486 v 10.464012 a 9,9 0 0 0 8.99992,9.000381 9,9 0 0 0 8.99991,-9.000381 V 15.723486 a 9,9 0 0 0 -8.99991,-8.9999169 z"
       style="baseline-shift:baseline;display:inline;overflow:visible;vector-effect:none;fill:#ffffff;stroke-width:0.9;stroke-linecap:round;stroke-linejoin:round;enable-background:accumulate;stop-color:#000000;stop-opacity:1"
       id="path79" />
  </g>
</svg>

<?xml version="1.0" encoding="UTF-8" standalone="no"?>
<!-- Created with Inkscape (http://www.inkscape.org/) -->

<svg
   width="210mm"
   height="210mm"
   viewBox="0 0 210 210"
   version="1.1"
   id="svg1"
   inkscape:version="1.4.3 (0d15f75042, 2025-12-25)"
   sodipodi:docname="appticon.svg"
   xmlns:inkscape="http://www.inkscape.org/namespaces/inkscape"
   xmlns:sodipodi="http://sodipodi.sourceforge.net/DTD/sodipodi-0.dtd"
   xmlns="http://www.w3.org/2000/svg"
   xmlns:svg="http://www.w3.org/2000/svg">
  <sodipodi:namedview
     id="namedview1"
     pagecolor="#505050"
     bordercolor="#eeeeee"
     borderopacity="1"
     inkscape:showpageshadow="0"
     inkscape:pageopacity="0"
     inkscape:pagecheckerboard="0"
     inkscape:deskcolor="#505050"
     inkscape:document-units="mm"
     inkscape:zoom="0.69396561"
     inkscape:cx="155.62731"
     inkscape:cy="510.83223"
     inkscape:window-width="1920"
     inkscape:window-height="996"
     inkscape:window-x="0"
     inkscape:window-y="0"
     inkscape:window-maximized="1"
     inkscape:current-layer="layer1" />
  <defs
     id="defs1">
    <linearGradient
       id="swatch89"
       inkscape:swatch="solid">
      <stop
         style="stop-color:#ffffff;stop-opacity:1;"
         offset="0"
         id="stop89" />
    </linearGradient>
    <clipPath
       clipPathUnits="userSpaceOnUse"
       id="clipPath5">
      <rect
         style="fill:#000000;stroke:#000000;stroke-width:0;stroke-linejoin:bevel;paint-order:stroke markers fill;stop-color:#000000"
         id="rect5-4"
         width="20"
         height="200"
         x="530"
         y="595" />
    </clipPath>
    <clipPath
       clipPathUnits="userSpaceOnUse"
       id="clipPath15">
      <rect
         style="fill:none;stroke:#000000;stroke-linecap:butt;stroke-linejoin:bevel;paint-order:stroke markers fill;stop-color:#000000"
         id="rect15-7"
         width="45.034248"
         height="38.955639"
         x="262.48285"
         y="121.00073" />
    </clipPath>
    <clipPath
       clipPathUnits="userSpaceOnUse"
       id="clipPath25">
      <rect
         style="fill:#ff0000;stroke:none;stroke-width:3;stroke-linecap:square;stroke-linejoin:miter;paint-order:stroke markers fill;stop-color:#000000"
         id="rect25-8"
         width="78"
         height="45.033199"
         x="763.61322"
         y="452.82422" />
    </clipPath>
    <clipPath
       clipPathUnits="userSpaceOnUse"
       id="clipPath24">
      <rect
         style="fill:none;stroke:#000000;stroke-width:0.999999;stroke-linecap:butt;stroke-linejoin:bevel;paint-order:stroke markers fill;stop-color:#000000"
         id="rect24"
         width="44.999748"
         height="77.937294"
         x="251.53429"
         y="222.73541" />
    </clipPath>
    <linearGradient
       id="swatch2"
       inkscape:swatch="solid">
      <stop
         style="stop-color:#ffffff;stop-opacity:1;"
         offset="0"
         id="stop2" />
    </linearGradient>
  </defs>
  <g
     inkscape:label="Layer 1"
     inkscape:groupmode="layer"
     id="layer1">
    <path
       id="path68"
       style="baseline-shift:baseline;display:inline;overflow:visible;vector-effect:none;fill:#ffffff;stroke-linecap:round;stroke-linejoin:round;enable-background:accumulate;stop-color:#000000;stop-opacity:1"
       d="M 33.135962 54.685034 A 13.579208 13.579208 0 0 0 19.557463 68.263017 L 19.557463 187.15809 A 13.579208 13.579208 0 0 0 33.135962 200.73658 L 177.52043 200.73658 A 13.579208 13.579208 0 0 0 191.09893 187.15809 L 191.09893 68.263017 A 13.579208 13.579208 0 0 0 177.52043 54.685034 L 33.135962 54.685034 z M 42.370024 73.304053 L 70.393636 73.304053 A 3.2121861 3.2121861 0 0 1 73.604293 76.515226 L 73.604293 81.841516 L 73.604293 102.27696 A 3.2121861 3.2121861 0 0 1 70.393636 105.4902 L 46.713944 105.4902 L 42.370024 105.4902 A 3.2121861 3.2121861 0 0 1 39.159367 102.27696 L 39.159367 76.515226 A 3.2121861 3.2121861 0 0 1 42.370024 73.304053 z M 92.370072 73.304053 L 120.39368 73.304053 A 3.2121861 3.2121861 0 0 1 123.60434 76.515226 L 123.60434 81.841516 L 123.60434 102.27696 A 3.2121861 3.2121861 0 0 1 120.39368 105.4902 L 92.370072 105.4902 A 3.2121861 3.2121861 0 0 1 89.159416 102.27696 L 89.159416 81.841516 L 89.159416 76.515226 A 3.2121861 3.2121861 0 0 1 92.370072 73.304053 z M 142.37012 73.304053 L 170.39373 73.304053 A 3.2121861 3.2121861 0 0 1 173.60439 76.515226 L 173.60439 102.27696 A 3.2121861 3.2121861 0 0 1 170.39373 105.4902 L 163.94245 105.4902 L 142.37012 105.4902 A 3.2121861 3.2121861 0 0 1 139.15946 102.27696 L 139.15946 81.841516 L 139.15946 76.515226 A 3.2121861 3.2121861 0 0 1 142.37012 73.304053 z M 42.370024 129.30477 L 46.713944 129.30477 L 70.393636 129.30477 A 3.2121861 3.2121861 0 0 1 73.604293 132.51594 L 73.604293 158.27768 A 3.2121861 3.2121861 0 0 1 70.393636 161.4904 L 46.713944 161.4904 L 42.370024 161.4904 A 3.2121861 3.2121861 0 0 1 39.159367 158.27768 L 39.159367 132.51594 A 3.2121861 3.2121861 0 0 1 42.370024 129.30477 z M 92.370072 129.30477 L 120.39368 129.30477 A 3.2121861 3.2121861 0 0 1 123.60434 132.51594 L 123.60434 158.27768 A 3.2121861 3.2121861 0 0 1 120.39368 161.4904 L 92.370072 161.4904 A 3.2121861 3.2121861 0 0 1 89.159416 158.27768 L 89.159416 132.51594 A 3.2121861 3.2121861 0 0 1 92.370072 129.30477 z M 142.37012 129.30477 L 163.94245 129.30477 L 170.39373 129.30477 A 3.2121861 3.2121861 0 0 1 173.60439 132.51594 L 173.60439 158.27768 A 3.2121861 3.2121861 0 0 1 170.39373 161.4904 L 163.94245 161.4904 L 142.37012 161.4904 A 3.2121861 3.2121861 0 0 1 139.15946 158.27768 L 139.15946 132.51594 A 3.2121861 3.2121861 0 0 1 142.37012 129.30477 z " />
    <path
       d=""
       style="baseline-shift:baseline;display:inline;overflow:visible;vector-effect:none;fill:#ffffff;stroke-linecap:round;stroke-linejoin:round;enable-background:accumulate;stop-color:#000000;stop-opacity:1"
       id="path84" />
    <path
       d="M 29.738236,20.980116 A 11.1115,11.1115 0 0 0 18.62677,32.091582 11.1115,11.1115 0 0 0 29.738236,43.202532 H 181.09954 a 11.1115,11.1115 0 0 0 11.11147,-11.11095 11.1115,11.1115 0 0 0 -11.11147,-11.111466 h -21.09949 v 5.788794 a 10,10 0 0 1 -9.9999,10.000423 10,10 0 0 1 -9.99991,-10.000423 V 20.980116 H 69.999862 V 26.76891 A 10,10 0 0 1 59.999955,36.769333 10,10 0 0 1 50.000049,26.76891 v -5.788794 z"
       style="baseline-shift:baseline;display:inline;overflow:visible;vector-effect:none;fill:#ffffff;stroke-linecap:round;stroke-linejoin:round;enable-background:accumulate;stop-color:#000000;stop-opacity:1"
       id="path83" />
    <path
       d=""
       style="baseline-shift:baseline;display:inline;overflow:visible;vector-effect:none;fill:#ffffff;stroke-linecap:round;stroke-linejoin:round;enable-background:accumulate;stop-color:#000000;stop-opacity:1"
       id="path82" />
    <path
       d="M 59.999915,6.7217087 A 9,9 0 0 0 51,15.721625 v 10.465873 a 9,9 0 0 0 8.999915,9.000381 9,9 0 0 0 8.999917,-9.000381 V 15.721625 A 9,9 0 0 0 59.999915,6.7217087 Z"
       style="baseline-shift:baseline;display:inline;overflow:visible;vector-effect:none;fill:#ffffff;stroke-width:0.9;stroke-linecap:round;stroke-linejoin:round;enable-background:accumulate;stop-color:#000000;stop-opacity:1"
       id="path81" />
    <path
       d=""
       style="baseline-shift:baseline;display:inline;overflow:visible;vector-effect:none;fill:#ffffff;stroke-linecap:round;stroke-linejoin:round;enable-background:accumulate;stop-color:#000000;stop-opacity:1"
       id="path80" />
    <path
       d="M 149.99992,6.7235691 A 9,9 0 0 0 141,15.723486 v 10.464012 a 9,9 0 0 0 8.99992,9.000381 9,9 0 0 0 8.99991,-9.000381 V 15.723486 a 9,9 0 0 0 -8.99991,-8.9999169 z"
       style="baseline-shift:baseline;display:inline;overflow:visible;vector-effect:none;fill:#ffffff;stroke-width:0.9;stroke-linecap:round;stroke-linejoin:round;enable-background:accumulate;stop-color:#000000;stop-opacity:1"
       id="path79" />
  </g>
</svg>
